packages/crayons-core/src/components/icon/icon-assets/icons/status.svg

<?xml version="1.0" encoding="UTF-8"?>
<svg width="16px" height="16px" viewBox="0 0 16 16" version="1.1" xmlns="http://www.w3.org/2000/svg" xmlns:xlink="http://www.w3.org/1999/xlink">
    <!-- Generator: Sketch 52.6 (67491) - http://www.bohemiancoding.com/sketch -->
    <title>icon/status</title>
    <desc>Created with Sketch.</desc>
    <g id="Icons-✅" stroke="none" stroke-width="1" fill="none" fill-rule="evenodd">
        <g id="Icons" transform="translate(-80.000000, -1200.000000)" fill="currentColor">
            <g id="icon/status" transform="translate(80.000000, 1200.000000)">
                <g id="status">
                    <path d="M10,16 C9.68140959,16.0016095 9.40192023,15.7878823 9.32,15.48 L6,3.4 L4.76,8.18 C4.68212735,8.48633039 4.40607297,8.70058156 4.09,8.7 L0.7,8.7 C0.313400675,8.7 4.73447626e-17,8.38659932 0,8 C-4.73447626e-17,7.61340068 0.313400675,7.3 0.7,7.3 L3.55,7.3 L5.37,0.52 C5.45348385,0.216062071 5.72980511,0.00540496218 6.045,0.00540496218 C6.36019489,0.00540496218 6.63651615,0.216062071 6.72,0.52 L10,12.6 L11.28,7.82 C11.3578726,7.51366961 11.633927,7.29941844 11.95,7.3 L15.3,7.3 C15.6865993,7.30000002 16,7.61340069 16,8 C16,8.38659931 15.6865993,8.69999998 15.3,8.7 L12.45,8.7 L10.63,15.48 C10.5561878,15.7723749 10.3010659,15.9829517 10,16 Z" id="Path"></path>
                </g>
            </g>
        </g>
    </g>
</svg>

<svg viewBox="0 0 16 16"><path d="M10 16a.7.7 0 0 1-.68-.52L6 3.4 4.76 8.18a.69.69 0 0 1-.67.52H.7a.7.7 0 0 1 0-1.4h2.85L5.37.52a.7.7 0 0 1 1.35 0L10 12.6l1.28-4.78a.69.69 0 0 1 .67-.52h3.35a.7.7 0 0 1 0 1.4h-2.85l-1.82 6.78A.69.69 0 0 1 10 16z" fill="currentColor" fill-rule="evenodd"/></svg>
